<?xml version="1.0" encoding="UTF-8"?>
<map version="1.10" tiledversion="1.11.2" orientation="orthogonal" renderorder="right-down" width="8" height="8" tilewidth="100" tileheight="100" infinite="0" nextlayerid="2" nextobjectid="1">
 <tileset firstgid="1" source="assets_candy.tsx"/>
 <layer id="1" name="bg" width="8" height="8">
  <data encoding="csv">
37,37,37,37,37,37,37,37,
36,0,0,36,36,0,0,36,
36,36,36,36,36,36,36,36,
0,36,36,36,36,36,36,0,
36,36,36,0,0,36,36,36,
0,36,36,0,0,36,36,0,
0,36,36,36,36,36,36,0,
0,36,36,36,36,36,36,0
</data>
 </layer>
</map>
